X:4
T:Trettondedagsmarschen (snoa)
R:snoa
C:Hjort Anders Olsson
N: Arrangerad av Anders Sparf (efter Karl Sporr, 1913)
D:R\"attviks spelmannslag RA 177
Z:from Donna Slonim
M:2/4
L:1/16
K:A
cd
|: "A"e2a2 abag | "D"a2f2 {a}f2ed | "D"~f2ed ~f2ed | "E"B6 c2 |
   "E"d3c  d2B2 | "E"G2E2 D2C2    | "E"B,2E2 GABG  | "A"A3B cBcd |
   "A"e2a2 abag | "D"a2f2 {a}f2ed | "D"~f2ed ~f2ed | "E"B6 c2 |
   "E"d3c  d2B2 | "E"G2E2 D2C2    | "E"B,2E2 GABG  |[1 "A"A6 cd :|[2 "A"A6 cB |
|: "A"Acec acec | "A"Acec acec    | "E"Bege  bege  | "E"Bege bege |
   "A"Acec acec | "A"Acec acec    | "E"BcdB  EGBG  |[1 "A"A6 cB :|[2 "A"A3B cBcd ||
